public/lightmenu.svg

<svg height="15" viewBox="0 0 20 12" width="15" xmlns="http://www.w3.org/2000/svg"><path d="m9 2h10c.2652 0 .5196-.10536.7071-.29289.1875-.18754.2929-.44189.2929-.70711 0-.265216-.1054-.519571-.2929-.707108-.1875-.187536-.4419-.292892-.7071-.292892h-10c-.26522 0-.51957.105356-.70711.292892-.18753.187537-.29289.441892-.29289.707108 0 .26522.10536.51957.29289.70711.18754.18753.44189.29289.70711.29289zm10 8h-18c-.265216 0-.519571.1054-.707108.2929-.187536.1875-.292892.4419-.292892.7071s.105356.5196.292892.7071c.187537.1875.441892.2929.707108.2929h18c.2652 0 .5196-.1054.7071-.2929s.2929-.4419.2929-.7071-.1054-.5196-.2929-.7071-.4419-.2929-.7071-.2929zm-18-3h18c.2652 0 .5196-.10536.7071-.29289.1875-.18754.2929-.44189.2929-.70711s-.1054-.51957-.2929-.70711c-.1875-.18753-.4419-.29289-.7071-.29289h-18c-.265216 0-.519571.10536-.707108.29289-.187536.18754-.292892.44189-.292892.70711s.105356.51957.292892.70711c.187537.18753.441892.29289.707108.29289z" fill="#fff"/></svg>

<svg width="15" height="15" viewBox="0 0 20 12" xmlns="http://www.w3.org/2000/svg">
<path d="M9 2L19 2C19.2652 2 19.5196 1.89464 19.7071 1.70711C19.8946 1.51957 20 1.26522 20 1C20 0.734784 19.8946 0.480429 19.7071 0.292892C19.5196 0.105356 19.2652 0 19 0L9 0C8.73478 0 8.48043 0.105356 8.29289 0.292892C8.10536 0.480429 8 0.734784 8 1C8 1.26522 8.10536 1.51957 8.29289 1.70711C8.48043 1.89464 8.73478 2 9 2ZM19 10L1 10C0.734784 10 0.480429 10.1054 0.292892 10.2929C0.105356 10.4804 0 10.7348 0 11C0 11.2652 0.105356 11.5196 0.292892 11.7071C0.480429 11.8946 0.734784 12 1 12L19 12C19.2652 12 19.5196 11.8946 19.7071 11.7071C19.8946 11.5196 20 11.2652 20 11C20 10.7348 19.8946 10.4804 19.7071 10.2929C19.5196 10.1054 19.2652 10 19 10V10ZM1 7L19 7C19.2652 7 19.5196 6.89464 19.7071 6.70711C19.8946 6.51957 20 6.26522 20 6C20 5.73478 19.8946 5.48043 19.7071 5.29289C19.5196 5.10536 19.2652 5 19 5L1 5C0.734784 5 0.480429 5.10536 0.292892 5.29289C0.105356 5.48043 0 5.73478 0 6C0 6.26522 0.105356 6.51957 0.292892 6.70711C0.480429 6.89464 0.734784 7 1 7Z" fill="#FFFFFF"/>
</svg>
